X:189
T: ES WAR EINMAL EINE JUEDIN
N: E0098B
O: Europa, Mitteleuropa, Deutschland, Uckermark, Granzow
R: erzaehlendes Volks - Lied, Sage, Liebe, Leid
M: 3/8
L: 1/16
K: F
C2 | F4F2 | G3BAG | A2F2
f2 | e3dc2 | d4=B2 | c4
c2 | f2f2c2 | d3efd | c2A2
c2 | f4cd | c3BGB | A2F2z2
A2A2d2 | c2B2G2 | F4

